X:1
T:Partition sans titre
C:Compositeur / Arrangeur
L:1/8
M:4/4
I:linebreak $
K:E
V:1 treble nm="Violon" snm="Vln."
V:1
"E" BE (3EEE BEAc | BE (3EEE"A" cBce |"E" BE (3EEE B2 GB |"A" cBce"B" fefg |"E" BE (3EEE BEAc | %5
 BE (3EEE"A" cBce |"B" fgfe"A" c2 Bc |1 efec"E" Bcec :|2 efec"E" Bcef |:"E" gB (3BBB g2 fe | %10
"A" fc (3ccc c2 Bc | fc (3ccc c2 Bc |"E" eB (3BBB Bcef |"E" gB (3BBB g2 fe |"A" fc (3ccc c2 bc | %15
"B" fgfe"A" c2 Bc |1 efec"E" Bcef :|2 efec"E" Bcec |] %18
